www/assets/icons/run_circle.svg

<svg xmlns="http://www.w3.org/2000/svg" width="24" height="24" viewBox="0 0 24 24" fill='currentColor'><path d="M12 2C6.48 2 2 6.48 2 12s4.48 10 10 10 10-4.48 10-10S17.52 2 12 2m1.5 4c.55 0 1 .45 1 1s-.45 1-1 1-1-.45-1-1 .45-1 1-1m2.5 6c-.7 0-2.01-.54-2.91-1.76l-.41 2.35L14 14.03V18h-1v-3.58l-1.11-1.21-.52 2.64-3.77-.77.2-.98 2.78.57.96-4.89-1.54.57V12H9V9.65l3.28-1.21c.49-.18 1.03.06 1.26.53.83 1.7 2.05 2.03 2.46 2.03z"/></svg>

<svg width="24" height="24" viewBox="0 0 24 24" xmlns="http://www.w3.org/2000/svg" fill='currentColor'><path d="M12 2C6.48 2 2 6.48 2 12C2 17.52 6.48 22 12 22C17.52 22 22 17.52 22 12C22 6.48 17.52 2 12 2ZM13.5 6C14.05 6 14.5 6.45 14.5 7C14.5 7.55 14.05 8 13.5 8C12.95 8 12.5 7.55 12.5 7C12.5 6.45 12.95 6 13.5 6ZM16 12C15.3 12 13.99 11.46 13.09 10.24L12.68 12.59L14 14.03V18H13V14.42L11.89 13.21L11.37 15.85L7.6 15.08L7.8 14.1L10.58 14.67L11.54 9.78L10 10.35V12H9V9.65L12.28 8.44C12.77 8.26 13.31 8.5 13.54 8.97C14.37 10.67 15.59 11 16 11V12Z"/></svg>
